logos/unbounce.svg

<?xml version="1.0" encoding="UTF-8"?>
<svg width="512px" height="102px" viewBox="0 0 512 102" version="1.1" xmlns="http://www.w3.org/2000/svg" xmlns:xlink="http://www.w3.org/1999/xlink" preserveAspectRatio="xMidYMid">
    <g>
        <path d="M50.581987,0 C78.5351903,0 101.163974,22.6287837 101.163974,50.581987 C101.163974,78.5351903 78.5351903,101.163974 50.581987,101.163974 C22.6287837,101.163974 0,78.5351903 0,50.581987 C0,22.6287837 22.6287837,0 50.581987,0 Z M56.8571959,18.7305478 C54.8605385,18.3502321 52.8638812,18.1600743 50.7721448,18.1600743 C32.8022284,18.1600743 18.3502321,32.7071495 18.3502321,50.581987 C18.3502321,63.1324048 25.4811513,74.066481 35.9398329,79.3909006 C35.6545961,81.482637 36.985701,83.5743733 39.0774373,84.3350046 C39.5528319,84.5251625 40.1233055,84.6202414 40.5987001,84.6202414 C41.3593315,84.6202414 42.1199629,84.4300836 42.7855153,84.0497679 C43.5461467,83.6694522 44.1166202,83.0989786 44.5920149,82.3383473 C44.7504797,82.10065 44.9089446,81.8629526 45.0123869,81.5702328 L45.0674095,81.387558 L48.7754875,70.4534819 L61.706221,33.6579387 L65.414299,22.7238626 C65.5093779,22.4386258 65.6044568,22.0583101 65.6044568,21.6779944 C65.6995357,20.6321263 65.414299,19.681337 64.9389044,18.8256267 C64.3684308,17.8748375 63.5127205,17.1142061 62.3717734,16.7338904 C60.2800371,16.068338 57.998143,16.9240483 56.8571959,18.7305478 Z M71.594429,25.956546 L67.1257196,39.457753 C69.3125348,42.5953575 70.5485608,46.4935933 70.5485608,50.581987 C70.5485608,59.1946747 65.2023574,66.4247235 57.6864745,69.2771251 L57.3325905,69.4076137 L52.8638812,82.9088208 C69.6928505,81.6727948 82.9088208,67.6961931 83.0038997,50.581987 C83.0038997,40.693779 78.5351903,31.8514392 71.594429,25.956546 Z M445.064438,27.9532033 C452.0052,27.9532033 458.375487,30.4252553 462.939276,34.7988858 L462.939276,34.7988858 L456.473909,42.0248839 C453.811699,38.7922006 450.008542,36.985701 445.920149,36.985701 C443.543175,36.985701 441.261281,37.5561746 439.264624,38.6971216 C436.98273,39.9331476 435.081151,41.7396472 433.845125,44.2116992 C433.821356,44.2592386 433.797586,44.3127205 433.773816,44.3691736 L433.631198,44.7197772 L433.631198,44.7197772 L433.559889,44.8772516 C432.894336,46.3034355 432.51402,47.9197772 432.323863,49.4410399 L432.323863,49.4410399 L432.323863,51.818013 C432.323863,52.0081708 432.418942,52.2934076 432.418942,52.4835655 L432.418942,52.4835655 L432.51402,52.9589601 C432.51402,53.2441968 432.609099,53.5294336 432.704178,53.9097493 C432.894336,54.6703807 433.084494,55.3359331 433.369731,56.0014856 C434.510678,58.8538533 436.697493,61.2308264 439.359703,62.5619313 L439.359703,62.5619313 L439.549861,62.6570102 L439.64494,62.7520891 C439.740019,62.8471681 439.835097,62.942247 439.930176,62.942247 C441.831755,63.8930362 443.828412,64.3684308 445.920149,64.3684308 C450.008542,64.3684308 453.906778,62.4668524 456.37883,59.3292479 L456.37883,59.3292479 L462.844197,66.3650882 L462.844197,66.650325 C458.280409,71.0239554 452.0052,73.4009285 445.159517,73.4009285 C431.182916,73.4009285 420.724234,63.6077994 420.724234,50.6770659 C420.724234,37.7463324 431.182916,27.9532033 445.064438,27.9532033 Z M489.181058,27.7630455 C501.731476,27.8581244 512,38.3168059 512,51.0573816 L512,51.0573816 L512,53.4343547 L477.296193,53.4343547 L477.391272,54.1949861 C478.532219,60.9455896 483.191086,64.5585887 490.892479,64.5585887 C496.026741,64.5585887 500.875766,62.942247 505.344475,59.8046425 C505.344475,59.7095636 505.439554,59.7095636 505.534633,59.8046425 L505.534633,59.8046425 L510.859053,66.2700093 C510.954132,66.2700093 510.954132,66.3650882 510.859053,66.4601671 C505.439554,70.7387187 498.023398,73.2107707 490.702321,73.2107707 C475.299536,73.2107707 465.411328,64.2733519 465.316249,50.4869081 C465.316249,44.2116992 467.598143,38.4118849 471.686537,34.3234912 C475.965088,30.0449396 482.050139,27.7630455 488.895822,27.7630455 L488.895822,27.7630455 Z M293.698793,27.7630455 C307.675395,27.7630455 318.229155,37.4610956 318.229155,50.4869081 C318.229155,63.4176416 307.675395,73.2107707 293.698793,73.2107707 C279.722191,73.2107707 269.26351,63.4176416 269.26351,50.4869081 C269.26351,37.5561746 279.81727,27.7630455 293.698793,27.7630455 Z M226.85831,8.55710306 C226.953389,8.55710306 227.048468,8.65218199 227.048468,8.74726091 L227.048468,8.74726091 L227.048468,36.5103064 L228.284494,35.1792015 C232.18273,30.6154132 237.697307,28.1433612 243.782358,28.1433612 C255.191829,28.1433612 264.034169,37.9364903 264.034169,50.3918292 C264.034169,62.942247 255.286908,72.4501393 243.782358,72.4501393 C237.221913,72.4501393 231.517177,69.7879294 227.618942,64.9389044 L227.618942,64.9389044 L226.382916,63.5127205 L226.382916,71.3091922 C226.382916,71.4042711 226.287837,71.49935 226.192758,71.49935 L226.192758,71.49935 L216.019313,71.49935 C215.924234,71.49935 215.829155,71.4042711 215.829155,71.3091922 L215.829155,71.3091922 L215.829155,8.74726091 C215.829155,8.65218199 215.924234,8.55710306 216.019313,8.55710306 L216.019313,8.55710306 Z M336.199071,29.7597029 C336.29415,29.7597029 336.389229,29.8547818 336.389229,29.9498607 L336.389229,29.9498607 L336.389229,53.3392758 C336.389229,54.6703807 336.484308,55.9064067 336.864624,57.0473538 C338.10065,60.2800371 341.523491,62.5619313 345.13649,62.5619313 C348.844568,62.4668524 352.172331,60.1849582 353.408357,56.9522748 C353.693593,55.8113278 353.883751,54.5753018 353.883751,53.2441968 L353.883751,53.2441968 L353.883751,29.9498607 C353.883751,29.8547818 353.97883,29.7597029 354.073909,29.7597029 L354.073909,29.7597029 L364.912906,29.7597029 C365.007985,29.7597029 365.103064,29.8547818 365.103064,29.9498607 L365.103064,29.9498607 L365.103064,51.7229341 C364.722748,60.1849582 362.250696,71.594429 345.13649,71.594429 C328.6441,71.594429 325.666152,62.6456768 325.195681,52.8020494 L325.169916,52.1983287 L325.169916,29.9498607 C325.169916,29.8547818 325.264995,29.7597029 325.360074,29.7597029 L325.360074,29.7597029 Z M129.877809,29.7597029 C129.972888,29.7597029 130.067967,29.8547818 130.067967,29.9498607 L130.067967,29.9498607 L130.067967,53.3392758 C130.067967,54.6703807 130.163045,55.9064067 130.543361,57.0473538 C131.779387,60.2800371 135.202228,62.5619313 138.815227,62.5619313 C142.523305,62.4668524 145.851068,60.1849582 147.087094,56.9522748 C147.372331,55.8113278 147.562488,54.5753018 147.562488,53.2441968 L147.562488,53.2441968 L147.562488,29.9498607 C147.562488,29.8547818 147.657567,29.7597029 147.752646,29.7597029 L147.752646,29.7597029 L158.591643,29.7597029 C158.686722,29.7597029 158.781801,29.8547818 158.781801,29.9498607 L158.781801,29.9498607 L158.781801,51.7229341 C158.401486,60.1849582 155.929434,71.594429 138.815227,71.594429 C121.986258,71.594429 119.228969,62.2766945 118.848654,52.1983287 L118.848654,52.1983287 L118.848654,29.9498607 C118.848654,29.8547818 118.848654,29.7597029 119.038812,29.7597029 L119.038812,29.7597029 Z M394.292293,29.7597029 C410.448104,29.7597029 413.635454,38.3469269 414.201071,47.9505979 L414.233102,48.5520824 C414.242704,48.7529728 414.251261,48.9542358 414.258867,49.1558032 L414.258867,49.1558032 L414.258867,71.3091922 L414.258867,71.3091922 L403.324791,71.4042711 C403.229712,71.4042711 403.134633,71.3091922 403.134633,71.2141133 L403.134633,71.2141133 L403.134633,47.9197772 C403.134633,46.5886722 403.039554,45.3526462 402.659239,44.2116992 C401.423213,40.9790158 398.000371,38.6971216 394.387372,38.6971216 C390.679294,38.7922006 387.351532,41.0740947 386.115506,44.3067781 C385.830269,45.4477252 385.640111,46.6837512 385.640111,48.0148561 L385.640111,48.0148561 L385.640111,71.3091922 C385.640111,71.4042711 385.545032,71.49935 385.449954,71.49935 L385.449954,71.49935 L374.610956,71.49935 C374.515877,71.49935 374.420799,71.4042711 374.420799,71.3091922 L374.420799,71.3091922 L374.420799,29.9498607 C374.420799,29.9498607 374.420799,29.8547818 374.515877,29.8547818 L374.515877,29.8547818 L383.928691,29.8547818 C383.928691,29.8547818 384.02377,29.8547818 384.02377,29.9498607 L384.02377,29.9498607 L384.02377,31.6612813 L384.974559,31.2809656 C387.636769,30.2350975 390.774373,29.7597029 394.292293,29.7597029 Z M187.305478,29.7597029 C204.134448,29.7597029 206.891736,39.0774373 207.272052,49.1558032 L207.272052,49.1558032 L207.272052,71.3091922 C207.272052,71.4042711 207.176973,71.49935 207.081894,71.49935 L207.081894,71.49935 L207.081894,71.4042711 L196.242897,71.4042711 C196.147818,71.4042711 196.052739,71.3091922 196.052739,71.2141133 L196.052739,71.2141133 L196.052739,47.9197772 C196.052739,46.5886722 195.95766,45.3526462 195.577344,44.2116992 C194.341318,40.9790158 190.918477,38.6971216 187.305478,38.6971216 C183.5974,38.7922006 180.269638,41.0740947 179.033612,44.3067781 C178.748375,45.4477252 178.558217,46.6837512 178.558217,48.0148561 L178.558217,48.0148561 L178.558217,71.3091922 C178.558217,71.4042711 178.463138,71.49935 178.368059,71.49935 L178.368059,71.49935 L167.529062,71.49935 C167.433983,71.49935 167.338904,71.4042711 167.338904,71.3091922 L167.338904,71.3091922 L167.338904,29.9498607 C167.338904,29.9498607 167.338904,29.8547818 167.433983,29.8547818 L167.433983,29.8547818 L176.846797,29.8547818 C176.941876,29.8547818 177.036955,29.8547818 177.036955,29.9498607 L177.036955,29.9498607 L177.036955,31.6612813 L177.987744,31.2809656 C180.649954,30.2350975 183.787558,29.7597029 187.305478,29.7597029 Z M50.581987,30.6154132 C51.0383658,30.6154132 51.5555952,30.6154132 52.0363142,30.6640936 L52.3884865,30.7104921 L39.8380687,67.4109564 C34.3234912,63.7979573 30.6154132,57.6178273 30.6154132,50.581987 C30.6154132,39.5528319 39.5528319,30.6154132 50.581987,30.6154132 Z M293.698793,37.1758589 C286.567874,37.1758589 280.958217,42.9756732 280.958217,50.4869081 C280.958217,58.0932219 286.472795,63.7979573 293.698793,63.7979573 C300.829712,63.7979573 306.534448,57.9030641 306.534448,50.4869081 C306.534448,43.0707521 300.924791,37.1758589 293.698793,37.1758589 Z M241.405385,37.6512535 C234.179387,37.6512535 228.66481,43.165831 228.66481,50.3918292 C228.66481,57.4276695 234.274466,62.942247 241.405385,62.942247 C248.536305,62.942247 253.955803,57.5227484 253.955803,50.2967502 C253.955803,42.9756732 248.631383,37.6512535 241.405385,37.6512535 Z M488.895822,36.6053853 C483.666481,36.6053853 479.863324,39.3626741 478.246982,44.401857 C478.056825,44.8772516 478.151903,45.3526462 478.532219,45.7329619 C478.817456,46.1132776 479.292851,46.3985144 479.768245,46.3985144 L479.768245,46.3985144 L498.118477,46.3985144 C498.593872,46.3985144 499.069266,46.1132776 499.354503,45.7329619 C499.63974,45.3526462 499.734819,44.8772516 499.544661,44.401857 C497.83324,39.3626741 494.125162,36.6053853 488.895822,36.6053853 Z" fill="#303030"></path>
    </g>
</svg>

<svg preserveAspectRatio="xMidYMid" viewBox="0 0 512 102" xmlns="http://www.w3.org/2000/svg">
  <path fill="#303030" d="M50.582 0c27.953 0 50.582 22.629 50.582 50.582s-22.629 50.582-50.582 50.582S0 78.535 0 50.582 22.629 0 50.582 0Zm6.275 18.73a32.2 32.2 0 0 0-6.085-.57c-17.97 0-32.422 14.547-32.422 32.422 0 12.55 7.131 23.484 17.59 28.809-.285 2.092 1.046 4.183 3.137 4.944.476.19 1.046.285 1.522.285.76 0 1.521-.19 2.187-.57.76-.38 1.33-.951 1.806-1.712.158-.237.317-.475.42-.768l.055-.182 3.708-10.935 12.931-36.795 3.708-10.934c.095-.285.19-.666.19-1.046.096-1.046-.19-1.997-.665-2.852-.57-.951-1.426-1.712-2.567-2.092-2.092-.666-4.374.19-5.515 1.997Zm14.737 7.227-4.468 13.5c2.187 3.138 3.423 7.037 3.423 11.125a19.92 19.92 0 0 1-12.863 18.695l-.353.13-4.47 13.502c16.83-1.236 30.046-15.213 30.14-32.327 0-9.888-4.468-18.73-11.409-24.625Zm373.47 1.996c6.941 0 13.311 2.472 17.875 6.846l-6.465 7.226c-2.662-3.233-6.465-5.04-10.554-5.04-2.377 0-4.659.571-6.655 1.712-2.282 1.236-4.184 3.043-5.42 5.515a2.707 2.707 0 0 0-.071.157l-.143.35-.071.158c-.666 1.426-1.046 3.043-1.236 4.564v2.377c0 .19.095.475.095.666l.095.475c0 .285.095.57.19.95.19.761.38 1.427.666 2.092 1.14 2.853 3.327 5.23 5.99 6.56l.19.096.095.095c.095.095.19.19.285.19a13.224 13.224 0 0 0 5.99 1.426c4.089 0 7.987-1.901 10.459-5.039l6.465 7.036v.285c-4.564 4.374-10.839 6.75-17.684 6.75-13.977 0-24.436-9.792-24.436-22.723 0-12.93 10.459-22.724 24.34-22.724Zm44.117-.19C501.731 27.858 512 38.317 512 51.057v2.377h-34.704l.095.761c1.141 6.75 5.8 10.364 13.501 10.364 5.135 0 9.984-1.617 14.452-4.754 0-.095.096-.095.19 0l5.325 6.465c.095 0 .095.095 0 .19-5.42 4.279-12.836 6.75-20.157 6.75-15.402 0-25.29-8.937-25.386-22.723 0-6.275 2.282-12.075 6.37-16.164 4.28-4.278 10.364-6.56 17.21-6.56Zm-195.482 0c13.976 0 24.53 9.698 24.53 22.724 0 12.93-10.554 22.724-24.53 22.724-13.977 0-24.435-9.793-24.435-22.724 0-12.93 10.553-22.724 24.435-22.724Zm-66.84-19.206c.094 0 .19.095.19.19V36.51l1.235-1.33c3.899-4.565 9.413-7.037 15.498-7.037 11.41 0 20.252 9.793 20.252 22.249 0 12.55-8.747 22.058-20.252 22.058-6.56 0-12.265-2.662-16.163-7.511l-1.236-1.426v7.796c0 .095-.095.19-.19.19h-10.174a.204.204 0 0 1-.19-.19V8.747c0-.095.095-.19.19-.19Zm109.34 21.203c.095 0 .19.095.19.19v23.39c0 1.33.095 2.566.476 3.707 1.236 3.233 4.658 5.515 8.271 5.515 3.709-.095 7.036-2.377 8.272-5.61a15.17 15.17 0 0 0 .476-3.708V29.95c0-.095.095-.19.19-.19h10.839c.095 0 .19.095.19.19v21.773c-.38 8.462-2.852 19.871-19.967 19.871-16.492 0-19.47-8.948-19.94-18.792l-.026-.604V29.95c0-.095.095-.19.19-.19Zm-206.321 0c.095 0 .19.095.19.19v23.39c0 1.33.095 2.566.475 3.707 1.236 3.233 4.66 5.515 8.272 5.515 3.708-.095 7.036-2.377 8.272-5.61.285-1.14.475-2.377.475-3.708V29.95c0-.095.096-.19.19-.19h10.84c.095 0 .19.095.19.19v21.773c-.38 8.462-2.853 19.871-19.967 19.871-16.829 0-19.586-9.317-19.966-19.396V29.95c0-.095 0-.19.19-.19Zm264.414 0c16.156 0 19.343 8.587 19.91 18.19l.031.602c.01.201.018.402.026.604v22.153l-10.934.095a.204.204 0 0 1-.19-.19V47.92c0-1.331-.095-2.567-.476-3.708-1.236-3.233-4.659-5.515-8.272-5.515-3.708.095-7.035 2.377-8.271 5.61a15.213 15.213 0 0 0-.476 3.708v23.294c0 .095-.095.19-.19.19h-10.839a.204.204 0 0 1-.19-.19V29.95s0-.094.095-.094h9.413s.095 0 .095.095v1.711l.95-.38c2.663-1.046 5.8-1.521 9.318-1.521Zm-206.987 0c16.83 0 19.587 9.317 19.967 19.396v22.153c0 .095-.095.19-.19.19v-.095h-10.84a.204.204 0 0 1-.19-.19V47.92c0-1.331-.094-2.567-.475-3.708-1.236-3.233-4.659-5.515-8.272-5.515-3.708.095-7.035 2.377-8.271 5.61a15.213 15.213 0 0 0-.476 3.708v23.294c0 .095-.095.19-.19.19H167.53a.204.204 0 0 1-.19-.19V29.95s0-.094.095-.094h9.413c.095 0 .19 0 .19.095v1.711l.95-.38c2.663-1.046 5.8-1.521 9.318-1.521Zm-136.723.855c.456 0 .974 0 1.454.05l.352.045-12.55 36.701c-5.515-3.613-9.223-9.793-9.223-16.829 0-11.03 8.938-19.967 19.967-19.967Zm243.117 6.56c-7.131 0-12.74 5.8-12.74 13.312 0 7.606 5.514 13.311 12.74 13.311 7.13 0 12.835-5.895 12.835-13.311s-5.61-13.311-12.835-13.311Zm-52.294.476c-7.226 0-12.74 5.515-12.74 12.74 0 7.037 5.61 12.551 12.74 12.551 7.131 0 12.55-5.42 12.55-12.645 0-7.321-5.324-12.646-12.55-12.646Zm247.49-1.046c-5.229 0-9.032 2.758-10.648 7.797-.19.475-.095.95.285 1.331.285.38.76.666 1.236.666h18.35c.476 0 .951-.286 1.237-.666.285-.38.38-.856.19-1.331-1.712-5.04-5.42-7.797-10.65-7.797Z"/>
</svg>
